bedrock/firefox/templates/firefox/whatsnew/includes/fx83/person2.svg

<svg width="218" height="252" viewBox="0 0 218 252" fill="none" xmlns="http://www.w3.org/2000/svg">
<path d="M129.528 138.449C129.528 138.449 132.023 135.954 132.808 129.109C133.592 122.335 131.025 108.502 122.683 101.3C114.34 94.0988 104.999 92.1737 97.2274 94.3128C89.4554 96.4518 85.3911 98.8049 71.7722 113.351C58.1533 127.897 54.6595 137.808 42.8231 142.086C32.4129 145.865 22.8583 144.368 18.6514 143.155C18.1523 143.013 17.7958 143.583 18.081 143.94C20.2914 146.934 26.3521 154.564 33.9103 158.414C41.8962 162.479 44.9622 163.263 50.4526 162.906C55.9429 162.55 115.124 163.334 129.528 138.449Z" fill="#FCB643"/>
<path d="M180.491 61.6142L197.145 59.6313L196.557 15.761C196.557 15.761 190.282 15.8599 181.363 18.3883C172.444 20.9167 140.99 32.0949 140.99 32.0949L148.068 68.5424" fill="white"/>
<path d="M185.736 55.444L159.62 61.1389L162.793 70.983L167.349 77.7355L173.614 81.5593C176.217 77.5186 181.896 68.6888 183.783 65.6949C185.671 62.701 185.356 57.4237 185.736 55.444Z" fill="white"/>
<path d="M195.74 25.247L196 15.9442C193.903 15.9055 188.997 16.0395 186.147 16.8847C183.297 17.7299 151.93 27.956 140.876 31.5808L142.701 38.5611L195.74 25.247Z" fill="#1CB0A8"/>
<path d="M185.736 60.5694L197.087 59.0479L196.557 15.761C196.557 15.761 190.282 15.8598 181.363 18.3882C172.444 20.9166 140.961 32.3986 140.961 32.3986L147.742 68.2169L176.868 61.7897" stroke="black" stroke-width="1.5" stroke-linecap="round" stroke-linejoin="round"/>
<path d="M190.862 26.4143L142 38.7886" stroke="black" stroke-width="1.5" stroke-linecap="round" stroke-linejoin="round"/>
<path d="M173.4 37.728C169.591 39.6781 157.883 42.6853 153.708 43.242C152.892 43.3508 150.805 43.7256 150 43.945" stroke="black" stroke-width="1.5" stroke-linecap="round" stroke-linejoin="round"/>
<path d="M171.258 45.4222C169.914 46.2385 153 49.6012 151.412 49.7986" stroke="black" stroke-width="1.5" stroke-linecap="round" stroke-linejoin="round"/>
<path d="M168.561 53.1165C166.321 53.117 156.583 55.6886 154.426 56.2343" stroke="black" stroke-width="1.5" stroke-linecap="round" stroke-linejoin="round"/>
<circle r="1.18983" transform="matrix(-0.842136 0.539266 0.539263 0.842137 148.707 33.2244)" fill="black"/>
<circle r="1.18983" transform="matrix(-0.842136 0.539266 0.539263 0.842137 145.217 34.335)" fill="black"/>
<path d="M185.644 61.2075L176.389 61.8064C176.464 59.7088 177.011 59.579 178 55.8032C179.236 51.0836 180.472 45.9144 183.731 46.2515C186.99 46.5886 186.842 50.1265 186.842 52.8234C185.718 58.4421 185.644 59.4109 185.644 61.2075Z" fill="white"/>
<path d="M176.705 63.9864C177.941 59.2667 179.547 47.4442 183.895 46.262C187.057 45.4026 188.041 48.0426 186.843 54.0314C186.124 57.6249 184.447 69.0031 177.86 74.3929" stroke="black" stroke-width="1.5" stroke-linecap="round" stroke-linejoin="round"/>
<path d="M166.108 76.3119C164.68 75.122 161.111 69.3315 160 66" stroke="black" stroke-width="1.5" stroke-linecap="round"/>
<path d="M139.795 194.993C139.795 194.993 145.072 195.563 152.202 196.347C159.404 197.132 166.391 197.346 173.593 200.055C180.795 202.765 184.502 205.118 185.643 210.751C186.784 216.384 188.139 221.66 181.008 225.724C173.807 229.789 159.618 235.849 154.769 237.204C149.92 238.559 145.642 239.129 142.933 239.129C140.223 239.129 132.451 240.912 127.389 242.409C122.326 243.907 117.477 245.333 114.34 244.334C111.203 243.336 108.921 243.978 112.771 238.345C116.622 232.712 91.9509 236.99 87.7441 236.562C83.4659 236.206 48.5274 229.575 43.4648 227.649C38.4023 225.724 22.6443 216.954 19.1505 211.891C15.6566 206.829 14.5158 202.408 20.5053 200.055C26.4947 197.702 35.6928 194.993 46.7448 195.42C57.7968 195.848 139.795 194.993 139.795 194.993Z" fill="#1CAFA1"/>
<path d="M51.2369 208.754C51.2369 208.754 81.7546 212.604 91.4518 215.171C101.149 217.738 114.197 223.514 114.197 223.514" stroke="black" stroke-width="1.5" stroke-miterlimit="10" stroke-linecap="round" stroke-linejoin="round"/>
<path d="M164.68 211.892C164.68 211.892 158.691 213.032 152.416 214.815C146.213 216.598 135.731 221.232 131.809 222.587C127.959 223.942 120.757 227.079 120.757 227.079" stroke="black" stroke-width="1.5" stroke-miterlimit="10" stroke-linecap="round" stroke-linejoin="round"/>
<path d="M116.479 241.981C116.123 241.981 122.326 234.209 123.895 230.501C125.463 226.794 127.032 224.084 127.032 224.084" stroke="black" stroke-width="1.5" stroke-miterlimit="10" stroke-linecap="round" stroke-linejoin="round"/>
<path d="M120.757 227.079C120.757 227.079 119.617 224.583 116.265 224.94C112.985 225.296 108.279 228.22 103.074 230.359C97.7978 232.498 85.605 237.774 83.252 239.272C80.899 240.769 78.4034 245.261 83.8224 245.475C89.2414 245.689 106.425 242.552 110.989 240.199C113.413 239.058 120.757 227.079 120.757 227.079Z" fill="black"/>
<path d="M127.032 224.155C127.032 224.155 125.891 219.307 122.397 219.521C118.903 219.735 116.55 220.305 114.839 223.229C113.057 226.152 118.333 228.077 118.333 228.077L127.032 224.155Z" fill="black"/>
<path d="M100.008 238.487C100.008 238.487 100.151 241.197 99.9369 242.98" stroke="white" stroke-width="1.5" stroke-miterlimit="10" stroke-linecap="round"/>
<path d="M104.286 236.776L103.573 242.48" stroke="white" stroke-width="1.5" stroke-miterlimit="10" stroke-linecap="round"/>
<path d="M108.636 234.708C108.921 234.78 107.852 238.488 107.638 241.482" stroke="white" stroke-width="1.5" stroke-miterlimit="10" stroke-linecap="round"/>
<path d="M130.526 207.043C130.526 207.043 137.728 203.906 147.068 189.288C156.409 174.671 170.099 152.924 175.447 136.595C180.795 120.196 182.435 123.048 180.082 84.3303C179.654 77.6991 180.082 74.6331 175.803 74.6331C170.883 74.6331 166.106 75.6314 166.106 75.6314C166.106 75.6314 165.75 79.553 164.181 86.0416C162.612 92.5302 160.545 103.154 158.976 109.643C157.407 116.131 156.052 121.123 150.348 126.542C144.644 131.961 137.514 132.389 130.74 134.67C123.966 136.952 116.551 139.305 112.486 139.733C108.422 140.089 90.311 136.595 85.3198 137.023C80.3286 137.451 70.4887 138.235 61.148 143.726C55.729 146.934 50.0961 160.411 47.7431 166.044C45.3901 171.677 43.4649 183.513 41.8962 187.007C40.3275 190.501 46.7448 197.916 58.0107 202.765C69.2766 207.613 70.0609 209.966 76.2643 209.752C86.0328 209.467 130.526 207.043 130.526 207.043Z" fill="#FF3355"/>
<path d="M60.3638 203.763C60.9342 203.549 73.9827 192.283 73.9827 192.283" stroke="#FFC0D1" stroke-width="1.5" stroke-miterlimit="10"/>
<path d="M165.464 79.1965H179.796" stroke="#FFC0D1" stroke-width="1.5" stroke-miterlimit="10"/>
<path d="M163.325 88.8938H180.224" stroke="#FFC0D1" stroke-width="1.5" stroke-miterlimit="10"/>
<path d="M160.83 99.8032L181.008 100.16" stroke="#FFC0D1" stroke-width="1.5" stroke-miterlimit="10"/>
<path d="M159.047 108.36C159.047 108.36 165.821 110.142 170.527 110.855C175.233 111.568 181.009 111.212 181.009 111.212" stroke="#FFC0D1" stroke-width="1.5" stroke-miterlimit="10"/>
<path d="M156.694 116.702C156.694 116.702 164.466 121.194 168.958 122.691C173.45 124.26 179.226 125.615 179.226 125.615" stroke="#FFC0D1" stroke-width="1.5" stroke-miterlimit="10"/>
<path d="M75.5513 209.966L78.6173 202.765" stroke="#FFC0D1" stroke-width="1.5" stroke-miterlimit="10"/>
<path d="M153.058 123.333C153.058 123.333 160.259 132.032 164.324 135.098C168.388 138.235 174.021 141.872 174.021 141.872" stroke="#FFC0D1" stroke-width="1.5" stroke-miterlimit="10"/>
<path d="M145.428 131.462C145.428 131.462 146.783 140.802 149.706 150.713C152.345 159.769 156.124 168.183 157.835 171.677" stroke="#FFC0D1" stroke-width="1.5" stroke-miterlimit="10"/>
<path d="M135.375 133.244C135.375 133.244 120.044 148.147 104.286 151.64C88.5284 155.134 65.854 154.778 54.7308 152.068" stroke="#FFC0D1" stroke-width="1.5" stroke-miterlimit="10"/>
<path d="M50.0961 161.195C50.0961 161.195 80.186 165.473 105.641 156.56C131.096 147.647 139.439 140.018 142.933 135.383C146.427 130.749 148.566 127.825 148.566 127.825C148.566 127.825 155.339 139.305 158.263 143.369C161.186 147.433 168.388 153.637 168.388 153.637" stroke="#FFC0D1" stroke-width="1.5" stroke-miterlimit="10"/>
<path d="M46.7449 168.967C46.7449 168.967 54.8734 168.753 59.1516 169.181C63.4298 169.609 71.7722 170.963 71.7722 170.963" stroke="#FFC0D1" stroke-width="1.5" stroke-miterlimit="10"/>
<path d="M44.2493 179.092C44.2493 179.092 56.0856 178.736 60.5777 178.736C65.0698 178.736 69.9184 179.876 69.9184 179.876" stroke="#FFC0D1" stroke-width="1.5" stroke-miterlimit="10"/>
<path d="M44.0353 193.638C44.0353 193.638 60.5776 187.648 70.2748 185.652" stroke="#FFC0D1" stroke-width="1.5" stroke-miterlimit="10"/>
<path d="M146.783 141.943C146.783 141.943 140.009 152.995 124.822 159.84C109.634 166.614 94.8744 170.536 73.127 169.466" stroke="#FFC0D1" stroke-width="1.5" stroke-miterlimit="10"/>
<path d="M150.99 154.778C150.99 154.778 141.507 163.548 128.102 171.32" stroke="#FFC0D1" stroke-width="1.5" stroke-miterlimit="10"/>
<path d="M154.769 164.689C154.769 164.689 151.846 168.967 143.86 176.739C135.874 184.511 130.455 188.005 130.455 188.005" stroke="#FFC0D1" stroke-width="1.5" stroke-miterlimit="10"/>
<path d="M74.7669 165.758L70.6313 174.244" stroke="black" stroke-width="1.5" stroke-miterlimit="10" stroke-linecap="round" stroke-linejoin="round"/>
<path d="M82.6815 132.246C82.6815 132.246 87.744 142.941 96.3004 143.868C104.857 144.867 112.843 140.588 114.768 135.882C115.837 133.315 116.123 131.747 116.194 130.891C116.194 130.463 116.55 130.178 116.978 130.178C117.263 130.178 117.477 129.964 117.905 129.893C119.688 129.679 121.47 127.183 120.615 123.119C120.615 123.119 113.841 121.194 108.778 117.272C103.716 113.422 100.65 105.008 100.65 105.008C100.65 105.008 94.2326 108.502 91.1666 117.058C87.1736 127.896 82.6815 132.246 82.6815 132.246Z" fill="white"/>
<path d="M100.864 135.669C100.864 135.669 100.079 134.314 98.5107 134.385C96.9421 134.456 96.1577 137.095 96.5856 138.592C96.9421 139.875 97.2986 140.945 99.4377 141.088C101.577 141.302 103.787 139.162 103.431 137.023C103.074 134.884 100.864 135.669 100.864 135.669Z" fill="#FF3355"/>
<path d="M92.5926 131.818C92.5926 131.818 94.6604 138.022 105.285 138.806" stroke="black" stroke-width="1.5" stroke-miterlimit="10" stroke-linecap="round" stroke-linejoin="round"/>
<path d="M96.5143 127.397C96.5143 127.397 96.5143 130.535 98.0829 131.248C99.6516 131.961 99.8655 130.463 100.65 130.749C101.434 131.034 100.65 132.816 102.219 133.102C103.787 133.387 104.714 129.964 104.714 129.964" stroke="black" stroke-width="1.5" stroke-miterlimit="10" stroke-linecap="round" stroke-linejoin="round"/>
<path d="M109.491 123.904C110.161 123.904 110.704 123.361 110.704 122.691C110.704 122.022 110.161 121.479 109.491 121.479C108.822 121.479 108.279 122.022 108.279 122.691C108.279 123.361 108.822 123.904 109.491 123.904Z" fill="black"/>
<path d="M90.1683 123.904C90.8378 123.904 91.3805 123.361 91.3805 122.691C91.3805 122.022 90.8378 121.479 90.1683 121.479C89.4989 121.479 88.9562 122.022 88.9562 122.691C88.9562 123.361 89.4989 123.904 90.1683 123.904Z" fill="black"/>
<path d="M130.098 206.615L141.792 171.106C142.505 168.824 140.722 166.543 138.369 166.757L68.6348 172.889C66.8523 173.031 65.7827 174.885 66.567 176.454L81.3981 208.825C81.9685 210.109 83.252 210.964 84.678 210.964L122.326 211.963C125.82 212.248 129.029 210.038 130.098 206.615Z" fill="white"/>
<path d="M104.5 194.066C107.139 194.066 109.278 192.214 109.278 189.93C109.278 187.646 107.139 185.795 104.5 185.795C101.862 185.795 99.723 187.646 99.723 189.93C99.723 192.214 101.862 194.066 104.5 194.066Z" stroke="black" stroke-width="1.5" stroke-miterlimit="10" stroke-linecap="round" stroke-linejoin="round"/>
<path d="M47.3865 155.134C47.3865 155.134 58.8664 152.781 64.4993 148.931C70.1323 145.08 81.7547 133.601 82.7529 132.246C83.7512 130.891 74.1965 133.601 73.6261 133.815C73.0557 134.029 54.3743 146.435 54.3743 146.435L47.3865 155.134Z" fill="#FCB643"/>
<path d="M42.6805 156.132C43.2509 156.132 59.2228 153.209 68.7061 145.651C78.1894 138.093 86.1754 128.966 88.5284 123.119C90.8814 117.272 93.8048 110.498 96.0865 108.145C98.3682 105.792 100.579 105.008 100.579 105.008" stroke="black" stroke-width="1.5" stroke-miterlimit="10" stroke-linecap="round" stroke-linejoin="round"/>
<path d="M106.212 101.586C106.212 101.586 110.704 101.015 112.985 103.725C115.267 106.434 118.262 112.638 119.403 115.775C120.543 118.912 122.326 122.406 126.818 123.547" stroke="black" stroke-width="1.5" stroke-miterlimit="10" stroke-linecap="round" stroke-linejoin="round"/>
<path d="M96.7283 103.511C96.7283 103.511 92.2362 104.509 87.6015 109.928C84.4641 113.636 75.1947 129.964 67.5653 135.74C59.9359 141.515 53.9464 145.651 48.7413 147.006C43.4648 148.36 35.6928 147.006 35.6928 147.006" stroke="black" stroke-width="1.5" stroke-miterlimit="10" stroke-linecap="round" stroke-linejoin="round"/>
</svg>

<svg width="218" height="252" fill="none" xmlns="http://www.w3.org/2000/svg"><path d="M129.528 138.449s2.495-2.495 3.28-9.34c.784-6.774-1.783-20.607-10.125-27.809-8.343-7.201-17.684-9.126-25.456-6.987-7.772 2.139-11.836 4.492-25.455 19.038-13.619 14.546-17.113 24.457-28.949 28.735-10.41 3.779-19.965 2.282-24.172 1.069-.499-.142-.855.428-.57.785 2.21 2.994 8.271 10.624 15.83 14.474 7.985 4.065 11.051 4.849 16.542 4.492 5.49-.356 64.671.428 79.075-24.457z" fill="#FCB643"/><path d="M180.491 61.614l16.654-1.983-.588-43.87s-6.275.099-15.194 2.627c-8.919 2.529-40.373 13.707-40.373 13.707l7.078 36.447" fill="#fff"/><path d="M185.736 55.444l-26.116 5.695 3.173 9.844 4.556 6.752 6.265 3.824c2.603-4.04 8.282-12.87 10.169-15.864 1.888-2.994 1.573-8.271 1.953-10.251z" fill="#fff"/><path d="M195.74 25.247l.26-9.303c-2.097-.039-7.003.095-9.853.94-2.85.846-34.217 11.072-45.271 14.697l1.825 6.98 53.039-13.314z" fill="#1CB0A8"/><path d="M185.736 60.57l11.351-1.522-.53-43.287s-6.275.099-15.194 2.627c-8.919 2.529-40.402 14.01-40.402 14.01l6.781 35.819 29.126-6.427M190.862 26.414L142 38.79" stroke="#000" stroke-width="1.5" stroke-linecap="round" stroke-linejoin="round"/><path d="M173.4 37.728c-3.809 1.95-15.517 4.957-19.692 5.514-.816.109-2.903.484-3.708.703M171.258 45.422c-1.344.817-18.258 4.18-19.846 4.377M168.561 53.117c-2.24 0-11.978 2.572-14.135 3.117" stroke="#000" stroke-width="1.5" stroke-linecap="round" stroke-linejoin="round"/><circle r="1.19" transform="matrix(-.84214 .53927 .53926 .84214 148.707 33.224)" fill="#000"/><circle r="1.19" transform="matrix(-.84214 .53927 .53926 .84214 145.217 34.335)" fill="#000"/><path d="M185.644 61.208l-9.255.598c.075-2.097.622-2.227 1.611-6.003 1.236-4.72 2.472-9.889 5.731-9.551 3.259.337 3.111 3.874 3.111 6.571-1.124 5.62-1.198 6.588-1.198 8.385z" fill="#fff"/><path d="M176.705 63.986c1.236-4.72 2.842-16.542 7.19-17.724 3.162-.86 4.146 1.78 2.948 7.77-.719 3.593-2.396 14.971-8.983 20.36" stroke="#000" stroke-width="1.5" stroke-linecap="round" stroke-linejoin="round"/><path d="M166.108 76.312c-1.428-1.19-4.997-6.98-6.108-10.312" stroke="#000" stroke-width="1.5" stroke-linecap="round"/><path d="M139.795 194.993s5.277.57 12.407 1.354c7.202.785 14.189.999 21.391 3.708 7.202 2.71 10.909 5.063 12.05 10.696s2.496 10.909-4.635 14.973c-7.201 4.065-21.39 10.125-26.239 11.48-4.849 1.355-9.127 1.925-11.836 1.925-2.71 0-10.482 1.783-15.544 3.28-5.063 1.498-9.912 2.924-13.049 1.925-3.137-.998-5.419-.356-1.569-5.989 3.851-5.633-20.82-1.355-25.027-1.783-4.278-.356-39.217-6.987-44.28-8.913-5.062-1.925-20.82-10.695-24.313-15.758-3.494-5.062-4.635-9.483 1.354-11.836 5.99-2.353 15.188-5.062 26.24-4.635 11.052.428 93.05-.427 93.05-.427z" fill="#1CAFA1"/><path d="M51.237 208.754s30.518 3.85 40.215 6.417c9.697 2.567 22.745 8.343 22.745 8.343M164.68 211.892s-5.989 1.14-12.264 2.923c-6.203 1.783-16.685 6.417-20.607 7.772-3.85 1.355-11.052 4.492-11.052 4.492" stroke="#000" stroke-width="1.5" stroke-miterlimit="10" stroke-linecap="round" stroke-linejoin="round"/><path d="M116.479 241.981c-.356 0 5.847-7.772 7.416-11.48 1.568-3.707 3.137-6.417 3.137-6.417" stroke="#000" stroke-width="1.5" stroke-miterlimit="10" stroke-linecap="round" stroke-linejoin="round"/><path d="M120.757 227.079s-1.14-2.496-4.492-2.139c-3.28.356-7.986 3.28-13.191 5.419-5.276 2.139-17.469 7.415-19.822 8.913-2.353 1.497-4.849 5.989.57 6.203 5.42.214 22.603-2.923 27.167-5.276 2.424-1.141 9.768-13.12 9.768-13.12z" fill="#000"/><path d="M127.032 224.155s-1.141-4.848-4.635-4.634c-3.494.214-5.847.784-7.558 3.708-1.782 2.923 3.494 4.848 3.494 4.848l8.699-3.922z" fill="#000"/><path d="M100.008 238.487s.143 2.71-.071 4.493M104.286 236.776l-.713 5.704M108.636 234.708c.285.072-.784 3.78-.998 6.774" stroke="#fff" stroke-width="1.5" stroke-miterlimit="10" stroke-linecap="round"/><path d="M130.526 207.043s7.202-3.137 16.542-17.755c9.341-14.617 23.031-36.364 28.379-52.693 5.348-16.399 6.988-13.547 4.635-52.265-.428-6.63 0-9.697-4.279-9.697-4.92 0-9.697.998-9.697.998s-.356 3.922-1.925 10.41c-1.569 6.49-3.636 17.113-5.205 23.602-1.569 6.488-2.924 11.48-8.628 16.899-5.704 5.419-12.834 5.847-19.608 8.128-6.774 2.282-14.189 4.635-18.254 5.063-4.064.356-22.175-3.138-27.166-2.71-4.991.428-14.831 1.212-24.172 6.703-5.419 3.208-11.052 16.685-13.405 22.318-2.353 5.633-4.278 17.469-5.847 20.963-1.569 3.494 4.849 10.909 16.115 15.758 11.266 4.848 12.05 7.201 18.253 6.987 9.769-.285 54.262-2.709 54.262-2.709z" fill="#F35"/><path d="M60.364 203.763c.57-.214 13.619-11.48 13.619-11.48M165.464 79.197h14.332M163.325 88.894h16.899M160.83 99.803l20.178.357M159.047 108.36s6.774 1.782 11.48 2.495c4.706.713 10.482.357 10.482.357M156.694 116.702s7.772 4.492 12.264 5.989c4.492 1.569 10.268 2.924 10.268 2.924M75.551 209.966l3.066-7.201M153.058 123.333s7.201 8.699 11.266 11.765c4.064 3.137 9.697 6.774 9.697 6.774M145.428 131.462s1.355 9.34 4.278 19.251c2.639 9.056 6.418 17.47 8.129 20.964M135.375 133.244s-15.331 14.903-31.089 18.396c-15.758 3.494-38.432 3.138-49.555.428" stroke="#FFC0D1" stroke-width="1.5" stroke-miterlimit="10"/><path d="M50.096 161.195s30.09 4.278 55.545-4.635c25.455-8.913 33.798-16.542 37.292-21.177 3.494-4.634 5.633-7.558 5.633-7.558s6.773 11.48 9.697 15.544c2.923 4.064 10.125 10.268 10.125 10.268M46.745 168.967s8.128-.214 12.407.214c4.278.428 12.62 1.782 12.62 1.782M44.25 179.092s11.836-.356 16.328-.356c4.492 0 9.34 1.14 9.34 1.14M44.035 193.638s16.543-5.99 26.24-7.986" stroke="#FFC0D1" stroke-width="1.5" stroke-miterlimit="10"/><path d="M146.783 141.943s-6.774 11.052-21.961 17.897c-15.188 6.774-29.948 10.696-51.695 9.626M150.99 154.778s-9.483 8.77-22.888 16.542M154.769 164.689s-2.923 4.278-10.909 12.05c-7.986 7.772-13.405 11.266-13.405 11.266" stroke="#FFC0D1" stroke-width="1.5" stroke-miterlimit="10"/><path d="M74.767 165.758l-4.136 8.486" stroke="#000" stroke-width="1.5" stroke-miterlimit="10" stroke-linecap="round" stroke-linejoin="round"/><path d="M82.681 132.246s5.063 10.695 13.62 11.622c8.556.999 16.542-3.28 18.467-7.986 1.069-2.567 1.355-4.135 1.426-4.991 0-.428.356-.713.784-.713.285 0 .499-.214.927-.285 1.783-.214 3.565-2.71 2.71-6.774 0 0-6.774-1.925-11.837-5.847-5.062-3.85-8.128-12.264-8.128-12.264s-6.417 3.494-9.483 12.05c-3.993 10.838-8.486 15.188-8.486 15.188z" fill="#fff"/><path d="M100.864 135.669s-.785-1.355-2.353-1.284c-1.569.071-2.353 2.71-1.925 4.207.356 1.283.713 2.353 2.852 2.496 2.139.214 4.349-1.926 3.993-4.065-.357-2.139-2.567-1.354-2.567-1.354z" fill="#F35"/><path d="M92.593 131.818s2.067 6.204 12.692 6.988M96.514 127.397s0 3.138 1.569 3.851c1.569.713 1.782-.785 2.567-.499.784.285 0 2.067 1.569 2.353 1.568.285 2.495-3.138 2.495-3.138" stroke="#000" stroke-width="1.5" stroke-miterlimit="10" stroke-linecap="round" stroke-linejoin="round"/><path d="M109.491 123.904a1.213 1.213 0 100-2.426 1.213 1.213 0 000 2.426zM90.168 123.904a1.213 1.213 0 100-2.425 1.213 1.213 0 000 2.425z" fill="#000"/><path d="M130.098 206.615l11.694-35.509c.713-2.282-1.07-4.563-3.423-4.349l-69.734 6.132c-1.783.142-2.852 1.996-2.068 3.565l14.831 32.371a3.602 3.602 0 003.28 2.139l37.648.999c3.494.285 6.703-1.925 7.772-5.348z" fill="#fff"/><path d="M104.5 194.066c2.639 0 4.778-1.852 4.778-4.136s-2.139-4.135-4.778-4.135c-2.638 0-4.777 1.851-4.777 4.135s2.139 4.136 4.777 4.136z" stroke="#000" stroke-width="1.5" stroke-miterlimit="10" stroke-linecap="round" stroke-linejoin="round"/><path d="M47.386 155.134s11.48-2.353 17.113-6.203c5.633-3.851 17.256-15.33 18.254-16.685.998-1.355-8.556 1.355-9.127 1.569-.57.214-19.252 12.62-19.252 12.62l-6.988 8.699z" fill="#FCB643"/><path d="M42.68 156.132c.57 0 16.543-2.923 26.026-10.481s17.47-16.685 19.822-22.532c2.353-5.847 5.277-12.621 7.558-14.974 2.282-2.353 4.493-3.137 4.493-3.137M106.212 101.586s4.492-.571 6.773 2.139c2.282 2.709 5.277 8.913 6.418 12.05 1.14 3.137 2.923 6.631 7.415 7.772" stroke="#000" stroke-width="1.5" stroke-miterlimit="10" stroke-linecap="round" stroke-linejoin="round"/><path d="M96.728 103.511s-4.492.998-9.126 6.417c-3.138 3.708-12.407 20.036-20.037 25.812-7.63 5.775-13.619 9.911-18.824 11.266-5.276 1.354-13.048 0-13.048 0" stroke="#000" stroke-width="1.5" stroke-miterlimit="10" stroke-linecap="round" stroke-linejoin="round"/></svg>
